X:1     %Music
T:Gently Johnny my Jingalo
B:Cecil Sharp's Collection of English Folk Songs, Vol 1, ed Maud Karpeles , Oxford University Press, 1974
S:William Tucker (64) at Ashcott, Somerset, 15 January 1907
Z:Cecil Sharp
M:6/8     %Meter
L:1/8     %
K:C
D |G2 G D2 E |F2 E D3 |G3 ABc | B2 A G2
w:I put my hand all on her toe, Fair maid is a li-ly O,
D |G2 G D2 E |F2 E D2 D |G2 G D2 E | F2 E D3 |
w:I put my hand all on her toe. She says to me you want to go,
B2 c d3 |B2 c d3 |c2 B A2 G | F2 E D2  |
w:Come to me qui-et-ly, Do not do me in-ju-ry, 
G2 G ABc |B2 A G2  |]
w:Gent-ly John-ny my Jin-ga-lo.